packages/core/src/svgs/tokens/branded/VRSW.svg

<svg width="24" height="24" viewBox="0 0 24 24" fill="none" xmlns="http://www.w3.org/2000/svg">
<path d="M10.9294 12.1262C13.8236 8.24388 17.0294 5.09092 21.7588 3.77327C21.7991 3.76063 21.8422 3.76063 21.8824 3.77327C21.9235 3.79093 21.9588 3.81445 21.9882 3.84975L22 3.88504C21.9989 3.9267 21.9867 3.9673 21.9647 4.0027C21.9439 4.03812 21.9133 4.06674 21.8765 4.08505L20.5824 4.67328C18.053 5.84975 15.5412 8.98502 13.9765 12.3556C13.2 14.0263 12.4295 15.5792 11.6706 17.4145C11.5705 17.6498 11.7529 17.8732 11.9882 17.8791H13.7353C13.7765 17.8791 13.7647 17.8909 13.7647 17.9144V20.1616C13.7647 20.2027 13.7529 20.2321 13.706 20.2321C11.5589 20.2439 8.95294 20.2262 6.8 20.2321C6.77059 20.2321 6.74119 20.1909 6.72941 20.1734C6.71178 20.1498 6.70589 20.1204 6.70589 20.0968V17.938C6.70589 17.8909 6.72941 17.8732 6.77059 17.8732H8.42945C8.4941 17.8732 8.55298 17.838 8.60583 17.7968C8.62834 17.7744 8.64604 17.7478 8.65812 17.7186C8.6702 17.6893 8.67651 17.6579 8.67651 17.6262C8.67651 17.4969 8.65881 17.3791 8.60583 17.2615C7.06431 13.6731 5.27164 10.1978 3.24117 6.86151C3.11177 6.64387 2.41764 6.69681 2.11177 6.69681C2.09737 6.69762 2.08297 6.69546 2.06944 6.69051C2.0559 6.68555 2.04352 6.67788 2.03306 6.66796C2.02259 6.65805 2.01426 6.64611 2.00858 6.63286C2.0029 6.61962 1.99997 6.60534 2 6.59093V4.40857C2.00022 4.39306 2.00656 4.37825 2.01765 4.3674C2.0237 4.36117 2.03106 4.35635 2.0392 4.3533C2.04734 4.35024 2.05604 4.34903 2.0647 4.34975H9.62357L9.64114 4.37329V6.60269C9.64114 6.66152 9.61767 6.7027 9.55289 6.7027H8.5059C8.45841 6.70147 8.41216 6.71829 8.37647 6.74976C8.33983 6.78535 8.31869 6.83397 8.31759 6.88505C8.31759 6.96741 8.32939 7.04387 8.36467 7.12035C9.14702 8.76747 9.95298 10.4321 10.7941 12.1144C10.8353 12.1909 10.8764 12.1909 10.9294 12.1262Z" fill="url(#paint0_linear_364_3332)"/>
<defs>
<linearGradient id="paint0_linear_364_3332" x1="2" y1="7.17329" x2="19.053" y2="7.55564" gradientUnits="userSpaceOnUse">
<stop stop-color="#FF6900"/>
<stop offset="1" stop-color="#F5430D"/>
</linearGradient>
</defs>
</svg>

<svg xmlns="http://www.w3.org/2000/svg" width="24" height="24" fill="none" viewBox="0 0 24 24">
    <path fill="url(#VRSW__a)" d="M10.93 12.126c2.894-3.882 6.1-7.035 10.829-8.353a.2.2 0 0 1 .123 0 .3.3 0 0 1 .106.077l.012.035a.24.24 0 0 1-.123.2l-1.295.588c-2.529 1.177-5.04 4.312-6.606 7.683-.776 1.67-1.546 3.223-2.305 5.059-.1.235.082.458.317.464h1.747c.042 0 .03.012.03.035v2.248c0 .04-.012.07-.059.07-2.147.012-4.753-.006-6.906 0-.03 0-.059-.041-.07-.059a.13.13 0 0 1-.024-.076v-2.159c0-.047.023-.065.065-.065h1.658a.3.3 0 0 0 .177-.076.24.24 0 0 0 .07-.17.9.9 0 0 0-.07-.365 83 83 0 0 0-5.365-10.4c-.13-.218-.823-.165-1.13-.165A.106.106 0 0 1 2 6.59V4.409q0-.024.018-.042a.06.06 0 0 1 .047-.017h7.559l.017.023v2.23c0 .059-.023.1-.088.1H8.506a.2.2 0 0 0-.13.047.2.2 0 0 0-.058.135c0 .082.011.159.047.235a275 275 0 0 0 2.43 4.994c.04.077.081.077.134.012"/>
    <defs>
        <linearGradient id="VRSW__a" x1="2" x2="19.053" y1="7.173" y2="7.556" gradientUnits="userSpaceOnUse">
            <stop stop-color="#FF6900"/>
            <stop offset="1" stop-color="#F5430D"/>
        </linearGradient>
    </defs>
</svg>
